!!!OTL: "Der Eifersuechtige" GANG MIR NIT UEBER MI MAETTELI
!!!ARE: Europa, Mitteleuropa, Schweiz; Elsass
!!!SCT: Z1214
!!!YEM: Copyright 1995, estate of Helmut Schaffrath.
**kern
*ICvox
*Ivox
*M3/8
*k[f#c#g#]
*A:
{8cc#
8ee
8dd
=1
8b
8cc#
8dd#
=2
8.ee
16ff#
8ee}
=3
{8cc#
8ee
8dd
=4
8b
8cc#
8dd
=5
4cc#
8r}
=6
{8cc#
8ee
8cc#
=7
8b
8dd
8b
=8
8.a
16b
8a}
=9
{8cc#
8ee
8cc#
=10
8b
8dd
8b
=11
4a
8r}
==
!!!AGN: Liebes - Lied
!!!ONB: ESAC (Essen Associative Code) Database: ZUCCAL
!!!AMT: simple triple
!!!AIN: vox
!!!EED: Helmut Schaffrath
!!!EEV: 1.0
*-
